src/images/icon/icon_switch_baseSpace.svg

<svg height="32" viewBox="0 0 32 32" width="32" xmlns="http://www.w3.org/2000/svg"><g fill="none" fill-rule="evenodd"><circle cx="16" cy="16" r="15.5" stroke="#d8e2f1"/><g transform="translate(6 6)"><path d="m10 5v6l-5 3" stroke="#b6c2cd" stroke-width="1.5"/><path d="m10 11 5 3" stroke="#b6c2cd" stroke-width="1.5"/><path d="m2.92282631 7.57565741c.14649327 0 .29866945.02682743.45226637.08183686l.15391263.0644536.01683831.01019972 2.24315638 1.12685241.00047368 4.5357368 3.34252632 1.6712632.0007933 2.5564716c.00336767.2379934-.09092683.465787-.26267755.6289825-.17848604.1631954-.41758997.2549929-.66006157.2481931-.14649326 0-.29677514-.0286867-.45084563-.0831915l-.15533336-.0630045h-.00336766l-.01347066-.0067998-4.55644539-2.2949359c-.28288354-.1359962-.54219344-.3501903-.73078246-.6051831-.16277028-.2153274-.26239691-.4495431-.29108439-.6711665l-.00863743-.1312112v-6.19122722c-.00336767-.23799335.09092683-.465787.26267755-.62898245.18185369-.16319544.41758997-.25159297.66006156-.24828762zm14.15764709.00349445c.2424716-.00679982.4782079.08159772.6600616.24819307.1414166.13537895.2303492.3156301.2534534.50856041l.0058565.11702214-.0168383 6.19122722c-.0000001.2583928-.1043975.5439849-.2963542.8023777-.1481771.2039943-.3459262.3818773-.5639351.5145008l-.1668474.0906823-4.5530777 2.3017357c-.138916.0688481-.2929865.1147468-.4494249.1348275l-.1567541.0113685c-.2593099 0-.4950462-.0883976-.6634292-.2481931-.1403192-.133163-.2291881-.3111858-.2549133-.5084904l-.0077643-.1204921-.0005064-2.5584716 3.3405263-1.6692632-.0005263-4.5297368 2.2642944-1.13965223c.2054273-.09859723.407487-.14619591.606179-.14619591zm-7.0215733-6.07903039c.2748011-.00271993.5452917.04025486.8028504.12718364l.1906096.07341075 5.0716976 2.41053276c.3940163.18699477.6230173.49298623.6264215.83977656.002961.31128021-.1776491.59301063-.5016471.79027042l-.1281421.06990559-2.77669 1.36079881-3.344-1.672-3.425 1.712-2.68902262-1.27840223c-.39401635-.18359488-.6230173-.49298624-.62642106-.83977656-.00296138-.31128022.18030947-.59301064.50253359-.79027042l.12725514-.0699056 5.12221246-2.51592979c.28961885-.13939611.66006156-.21759393 1.04734259-.21759393z" fill="#36435c" fill-rule="nonzero"/></g></g></svg>

<?xml version="1.0" encoding="UTF-8"?>
<svg width="32px" height="32px" viewBox="0 0 32 32" version="1.1" xmlns="http://www.w3.org/2000/svg" xmlns:xlink="http://www.w3.org/1999/xlink">
    <title>icon_switch_baseSpace</title>
    <g id="Dashboard" stroke="none" stroke-width="1" fill="none" fill-rule="evenodd">
        <g id="00-Icon、DropDown" transform="translate(-577.000000, -230.000000)">
            <g id="编组-22" transform="translate(577.000000, 230.000000)">
                <circle id="icon_switch_baseSpace" stroke="#D8E2F1" cx="16" cy="16" r="15.5"></circle>
                <g id="编组-15" transform="translate(6.000000, 6.000000)">
                    <polyline id="路径-14" stroke="#B6C2CD" stroke-width="1.5" points="10 5 10 11 5 14"></polyline>
                    <line x1="10" y1="11" x2="15" y2="14" id="路径-15" stroke="#B6C2CD" stroke-width="1.5"></line>
                    <path d="M2.92282631,7.57565741 C3.06931958,7.57565741 3.22149576,7.60248484 3.37509268,7.65749427 L3.52900531,7.72194787 L3.54584362,7.73214759 L5.789,8.859 L5.78947368,13.3947368 L9.132,15.066 L9.1327933,17.6224716 C9.13616097,17.860465 9.04186647,18.0882586 8.87011575,18.2514541 C8.69162971,18.4146495 8.45252578,18.506447 8.21005418,18.4996472 C8.06356092,18.4996472 7.91327904,18.4709605 7.75920855,18.4164557 L7.60387519,18.3534512 L7.60050753,18.3534512 L7.58703687,18.3466514 L3.03059148,16.0517155 C2.74770794,15.9157193 2.48839804,15.7015252 2.29980902,15.4465324 C2.13703874,15.231205 2.03741211,14.9969893 2.00872463,14.7753659 L2.0000872,14.6441547 L2.0000872,8.45292748 C1.99671953,8.21493413 2.09101403,7.98714048 2.26276475,7.82394503 C2.44461844,7.66074959 2.68035472,7.57235206 2.92282631,7.57565741 Z M17.0804734,7.57915186 C17.322945,7.57235204 17.5586813,7.66074958 17.740535,7.82734493 C17.8819516,7.96272388 17.9708842,8.14297503 17.9939884,8.33590534 L17.9998449,8.45292748 L17.9830066,14.6441547 C17.9830065,14.9025475 17.8786091,15.1881396 17.6866524,15.4465324 C17.5384753,15.6505267 17.3407262,15.8284097 17.1227173,15.9610332 L16.9558699,16.0517155 L12.4027922,18.3534512 C12.2638762,18.4222993 12.1098057,18.468198 11.9533673,18.4882787 L11.7966132,18.4996472 C11.5373033,18.4996472 11.301567,18.4112496 11.133184,18.2514541 C10.9928648,18.1182911 10.9039959,17.9402683 10.8782707,17.7429637 L10.8705064,17.6224716 L10.87,15.064 L14.2105263,13.3947368 L14.21,8.865 L16.4742944,7.72534777 C16.6797217,7.62675054 16.8817814,7.57915186 17.0804734,7.57915186 Z M10.0589001,1.50012147 C10.3337012,1.49740154 10.6041918,1.54037633 10.8617505,1.62730511 L11.0523601,1.70071586 L16.1240577,4.11124862 C16.518074,4.29824339 16.747075,4.60423485 16.7504792,4.95102518 C16.7534402,5.26230539 16.5728301,5.54403581 16.2488321,5.7412956 L16.12069,5.81120119 L13.344,7.172 L10,5.5 L6.575,7.212 L3.88597738,5.93359777 C3.49196103,5.75000289 3.26296008,5.44061153 3.25955632,5.09382121 C3.25659494,4.78254099 3.43986579,4.50081057 3.76208991,4.30355079 L3.88934505,4.23364519 L9.01155751,1.7177154 C9.30117636,1.57831929 9.67161907,1.50012147 10.0589001,1.50012147 Z" id="形状结合" fill="#36435C" fill-rule="nonzero"></path>
                </g>
            </g>
        </g>
    </g>
</svg>
